X: 031
T: the British Sailors Hornpipe
%R: reel
B: Thompson's Twenty four Country Dances (for the Year 1804) p.3 #1
S: http://folkopedia.efdss.org/images/2/28/Thompson24_1804.PDF  2014-8-2
Z: 2014 John Chambers <jc:trillian.mit.edu>
N: In bar 6, the 2nd c is missing the natural as in bar 2; not fixed. Possibly not a typo; see bar 12.
N: The 2nd strain has initial repeat but no final repeat; not fixed.
M: C|
L: 1/8
K: F
fg |\
afaf gedc | d^cdf e=cBA | BABd AGAc | GABG FEDC |
afaf gedc | d^cde ecBA | Bcde fgab | agfe f2 :|
|: g2 |\
afcA FAcf | gecG EGce | fdfd gedc | fd^cB c2c2{Bc}y0 |
dBdB GABG | gabg fedc | fdec dBAG | AGFE F2 |]
% - - - - - - - - - - - - - - - - - - - - - - - - -
%%begintext align
%% Cast off two Cu: and back again hands across and
%% back again lead down the middle & back set to
%% your Partner hands six once round.
%%endtext
% - - - - - - - - - - - - - - - - - - - - - - - - -
